X:1
T:Anna
T:ANNA
T:Renato Falerni
C:Renato Falerni
Z:All Rights Reserved
L:1/8
Q:1/4=140
M:4/4
K:C
V:1 treble 
%%MIDI program 0
V:1
"^Bossanova" A ||"Dm7" ef A2- AefA- |"G7" AefG- Gefd- |"Cmaj7" d e3- e4 |"Am7" z4 z2 z A | %5
"^Bm7(b5)" ef A2- Aef_B- |"E7" Bef=B- Bef[B-e] |"Amaj7" B ^c3- c4 |"^F#7(#5)" z4 z2 z ^A | %9
"Abm7" _gf _c2- cgf_d- |"Db7" d_gf_c- cgf_B- |"Gbmaj7" B _d3- d_Bd_e- |"^A7(b5)" e4- e3 A | %13
"Dm7" fe A2- Afe_A- |"G7" AfeG- Gfeg- |"Cmaj7" g4- g^fga- |"Em7""A7" a4-"A7" a4 || %17
"Bbm7" _ac_da- acda- |"Eb7" ac_dg- g3 c |"Abmaj7" gc_dg- gcdg- |"Dbmaj7" gc_df- f3 c | %21
"Dm7" fBcf- fBcf- |"G7" fBcf- fBce- |"Cmaj7" e4- eGA_B- |"^A13(b9)""^Aaug" B4"^Aaug" A3 A || %25
"Dm7" ef A2- AefA- |"G7" AefG- Gefd- |"Cmaj7" d e3- e4 |"Am7" z4 z2 z A |"^Bm7(b5)" ef A2- Aef_B- | %30
"E7" Bef=B- Bef[B-e] |"Amaj7" B ^c3- c3 ^G |"F#m7" A^c^GA- A3 A |"Bm7" e^f^cd- dfBd- | %34
"E7" d^f_Bd- d e2 =B |"C#m7" ^f^g^de- egde- |"F#7" e=g^^c[d-^d] d ^f2 ^c |"Bm7" e^fA^c- cd^FA- | %38
"^E7sus4(b9)" AB=FA- ABAA- |"Asus4" A8- |"A6""^F#7(#9)" A4-"^F#7(#9)" A3 A ||"Dm7" ef A2- AefA- | %42
"G7" AefG- Gefd- |"Cmaj7" d e3- e4 |"Am7" z4 z2 z A |"^Bm7(b5)" ef A2- Aef_B- | %46
"E7" Bef=B- Bef[B-e] |"Amaj7" B ^c3- c4 |"F#+7" z4 z2 z ^A |"Abm7" _gf _c2- cgf_d- | %50
"Db7" d_gf_c- cgf_B- |"Gbmaj7" B _d3- d_Bd_e- |"^A7(b5)" e4- e3 A |"Dm7" fe A2- Afe_A- | %54
"G7" AfeG- Gfeg- |"Cmaj7" g4- g^fga- |"Em7""A7" a4-"A7" a4 ||"Bbm7" _ac_da- acda- | %58
"Eb7" ac_dg- g3 c |"Abmaj7" gc_dg- gcdg- |"Dbmaj7" gc_df- f3 c |"Dm7" fBcf- fBcf- | %62
"G7" fBcf- fBce- |"Cmaj7" eGB"Dm7"e"Dm7" fAcf |"Ebm7" _g_B_d"Em7"g"Em7" =g=B=dg || %65
"Bbm7" _ac_da- acda- |"Eb7" ac_dg- g3 c |"Abmaj7" gc_dg- gcdg- |"Dbmaj7" gc_df- f3 c | %69
"Dm7" fBcf- fBcf- |"G7" fBcf- fBce- |"Cmaj7" e4- eGA_B- |"^A13(b9)""^Aaug" B4"^Aaug" A3 A || %73
"Dm7" ef A2- AefA- |"G7" AefG- Gefd- |"Cmaj7" d e3- e4 |"Am7" z4 z2 z A |"^Bm7(b5)" ef A2- Aef_B- | %78
"E7" Bef=B- Bef[B-e] |"Amaj7" B ^c3- c3 ^G |"F#m7" A^c^GA- A3 A |"Bm7" e^f^cd- dfBd- | %82
"E7" d^f_Bd- d e2 =B |"C#m7" ^f^g^de- egde- |"F#7" e=g^^c[d-^d] d ^f2 ^c |"Bm7" e^fA^c- cd^FA- | %86
"^E7sus4(b9)" AB=FA- ABAA- |"Asus4" A8- |"A6""^F#7(#9)" A4-"^F#7(#9)" A3 A ||"Dm7" efAe- efAe- | %90
"G7" efGe- efGd- |"Cmaj7" d e3- e4- |"Am7" e4- e3 A |"Dm7" efAe- efAe- |"G7" efGe- efGd- | %95
"Cmaj7" d e3- e4- |"Am7" e4- e3 A |"Dm7" efAe- efAe- |"G7" efGe- efGd- |"Cmaj7" d e3- e4- | e8 |] %101

